X:1
T:Symphony No. 40 in G minor (1st mvt theme)
C:Wolfgang Amadeus Mozart
M:4/4
L:1/8
Q:1/4=144
K:Gm
BB|d2cB A2A2|G4z2BB|e2dc B2A2|A4z2BB|\
G2A2B2c2|d2cB A2G2|G4z4|G8|]
